!!!COM: Robert Franz
!!!CNT: Deutscher
!!!TXO: Deutsche 
!!!OTL: Sta2ndchen
!!!OPS: Op. 17
!!!ONM: No. 2
!!!ONB: Original key: B major
!!!LYR: W. Osterwald
!!!ENC: Brian Bice
!!!YOR: Vocal Album, G. Schirmer, Inc., 1907
!!!ODT: 1860/
!!NB: Vocal melody and text only encoded.
**kern	**silbe
*clefG2	*
*k[b-e-a-d-]	*
*M2/4	*
=2	=2
4r	.
8r	.
{(16c	{Der
16d-)	|
=3	=3
8e-	Mond
8cc	ist
(8b-	schla-
16a-)	|
16g	-fen
=4	=4
4a-	'gan-
8f}	-gen,}
{(16cc	{die
16b-)	|
=5	=5
(8a-	Ster-
16g)	|
16f	-ne
8g	blin-
(16dn	-zeln
16e-)	|
=6	=6
4c}	blind,}
8.r	.
{16e-	{als
=7	=7
(8g	ob-
16f)	|
16e-	-sie
8.a-	mu2-
16b-	-de
=8	=8
4cc}	sind}
16r	.
{16dd-	{von
16cc	al-
16b-	-lem
=9	=9
4a-	Fun-
8cc	-keln
8cc	und
=10	=10
2ee-	Pran-
=11	=11
4cc}	-gen.}
4r	.
=12	=12
4r	.
8r	.
{(16c	{Und
16d-)	|
=13	=13
8e-	vor
8cc	dem
(8b-	Fen-
16a-)	|
16g	-ster
=14	=14
4a-	lei-
8f}	-se}
8r	.
=15	=15
{8cc	{sa2u-
16b-	-selt
16a-	so
8.g	lieb
16f	und
=16	=16
4e-}	lind}
8.r	.
{16e-	{ein
=17	=17
(8g	fri-
16f)	|
16e-	-scher
8.a-	Fru2h-
16b-	-lings-
=18	=18
4cc}	-wind;}
4r	.
=19	=19
8.r	.
{16b-	{ich
16a-	wu2nsch'
16g	ihm
16f	gu-
16g	-te
=20	=20
8b-	Rei-
8a-}	-se.}
4r	.
=21	=21
4r	.
8r	.
{(16c	{Und
16d-)	|
=22	=22
8e-	horst
8cc	du's
(8b-	sach-
cq	|
b-q	|
16a-)	|
16g	-te
=23	=23
4a-	po-
8f}	-chen:}
{16cc	{"Gu-
16b-	-te
=24	=24
8a-	Nacht,
16g	gu-
16f	-te
8g	Nacht,
16r	,
16g	mein
=25	=25
4c}	Kind!"}
4r	.
=26	=26
{8g	{Dich
16f	gru2sst
16e-	der
8.a-	Fru2h-
16b-	-lings-
=27	=27
4cc}	-wind,}
4r	.
=28	=28
8r	.
{(16cc	{er
16b-)	|
16a-	hat
16g	es
16f	mir
16e-	ver-
=29	=29
8b-	-spro-
8a-}	-chen.}
4r	.
*-	*-
